X:1
T:Reina Galop
T:P.W. Newton (1868 - ??)
T:(1903)
C:P.W. Newton (1868 - ??)
%%score { ( 1 2 3 ) ( 4 5 ) }
L:1/8
Q:1/4=80
M:2/4
K:G
V:1 treble-8 nm="Guitare classique"
V:2 treble-8 
V:3 treble-8 
V:4 tab stafflines=6 strings=E2,A2,D3,G3,B3,E4 nostems nm="Guitare classique (Tablature)"
V:5 tab stafflines=6 strings=E2,A2,D3,G3,B3,E4 nostems 
V:1
"_" BG G3/2 d/ | cA AB | cd ef | eG [GB]>c | BG G>d | cA AB | cd e/d/e/f/ | gg g z/ d/ | BG G>d | %9
 cA AB | cd ef | eG [GB]>c | BG G>d | dc c[G^c] | d[Bg] [cg]/f/[ce]/f/ | [Bg]2 [GBg]2!fine! || %16
[K:D] !4!gc !2!f>e | ed d>e | dc c>d | B^G A2 | gc f>e | ed d>e | B^G/c/ d/B/c/d/ | %23
 e/^d/e/d/ e/d/e/f/ | !4!g/!1!A/!2!c/g/ f>e | ed d>e | dc c>d | B^G A2 | g/A/c/g/ f>e | ed d^d | %30
 e/f/g/e/ [GB][Gc] |[Q:1/4=80] [Fd]2[Q:1/4=70] !arpeggio![A=c]2!D.C.! || %32
V:2
 G,D D2 | DA CB, | A,A D[Ac] | G,D D2 | G,D D2 | DA CB, | A,A D2 | G,[GB] [G,GB] z | G,D D2 | %9
 DA CB, | A,A D[Ac] | G,D D2 | G,D D=F | EG _E2 | DG D2 | GD G,2 ||[K:D] A,G A,[Gc] | DA AA, | %18
 A,G GG | ^E2 F2 | A,G A,[Gc] | DA AA, | E,2 E,2 | A,4 | A,2 A,[Gc] | DA AA, | A,G GE | ^E2 F2 | %28
 A,2 A,[Gc] | DA AB, | [E,G]2 A,2 | D2 D2 || %32
V:3
 x4 | x4 | x4 | x4 | x4 | x4 | x4 | x4 | x4 | x4 | x4 | x4 | x4 | x4 | x4 | x4 ||[K:D] x4 | x4 | %18
 x4 | x4 | x4 | x4 | x ^G/ x5/2 | x4 | x4 | x4 | x4 | x4 | x4 | x4 | x4 | x4 || %32
V:4
 !2!B, !3!G, !3!G,3/2 !2!D/ | !2!C !3!A, !3!A, !2!B, | !2!C !2!D !1!E !1!F | %3
 !1!E !3!G, [!3!G,!2!B,]3/2 !2!C/ | !2!B, !3!G, !3!G,3/2 !2!D/ | !2!C !3!A, !3!A, !2!B, | %6
 !2!C !2!D !1!E/ !2!D/ !1!E/ !1!F/ | !1!G !1!G !1!G x/ !2!D/ | !2!B, !3!G, !3!G,3/2 !2!D/ | %9
 !2!C !3!A, !3!A, !2!B, | !2!C !2!D !1!E !1!F | !1!E !3!G, [!3!G,!2!B,]3/2 !2!C/ | %12
 !2!B, !3!G, !3!G,3/2 !2!D/ | !2!D !2!C !2!C [!3!G,!2!^C] | %14
 !2!D [!2!B,!1!G] [!2!C!1!G]/ !1!F/ [!2!C!1!E]/ !1!F/ | [!2!B,!1!G]2 [!3!G,!2!B,!1!G]2 || %16
[K:D] !1!G !2!C !1!F3/2 !1!E/ | !1!E !2!D !2!D3/2 !1!E/ | !2!D !2!C !2!C3/2 !2!D/ | %19
 !2!B, !3!^G, !3!A,2 | !1!G !2!C !1!F3/2 !1!E/ | !1!E !2!D !2!D3/2 !1!E/ | %22
 !2!B, !3!^G,/ !2!C/ !2!D/ !2!B,/ !2!C/ !2!D/ | !1!E/ !2!^D/ !1!E/ !2!D/ !1!E/ !2!D/ !1!E/ !1!F/ | %24
 !1!G/ !3!A,/ !2!C/ !1!G/ !1!F3/2 !1!E/ | !1!E !2!D !2!D3/2 !1!E/ | !2!D !2!C !2!C3/2 !2!D/ | %27
 !2!B, !3!^G, !3!A,2 | !1!G/ !3!A,/ !2!C/ !1!G/ !1!F3/2 !1!E/ | !1!E !2!D !2!D !2!^D | %30
 !1!E/ !1!F/ !1!G/ !1!E/ [!3!G,!2!B,] [!3!G,!2!C] | [!4!F,!2!D]2 [!3!A,!2!=C]2 || %32
V:5
 !6!G,, !4!D, !4!D,2 | !4!D, x !5!C, !5!B,, | !5!A,, !3!A, !4!D, [!3!A,!2!C] | %3
 !6!G,, !4!D, !4!D,2 | !6!G,, !4!D, !4!D,2 | !4!D, x !5!C, !5!B,, | !5!A,, !3!A, !4!D,2 | %7
 !6!G,, [!3!G,!2!B,] [!6!G,,!3!G,!2!B,] x | !6!G,, !4!D, !4!D,2 | !4!D, x !5!C, !5!B,, | %10
 !5!A,, !3!A, !4!D, [!3!A,!2!C] | !6!G,, !4!D, !4!D,2 | !6!G,, !4!D, !4!D, !4!=F, | %13
 !4!E, !3!G, !4!_E,2 | !4!D, !3!G, !4!D,2 | !3!G, !4!D, !6!G,,2 || %16
[K:D] !5!A,, !3!G, !5!A,, [!3!G,!2!C] | !4!D, !3!A, !3!A, !5!A,, | !5!A,, !3!G, !3!G, !3!G, | %19
 !4!^E,2 !4!F,2 | !5!A,, !3!G, !5!A,, [!3!G,!2!C] | !4!D, !3!A, !3!A, !5!A,, | !6!E,,2 !6!E,,2 | %23
 !5!A,,4 | !5!A,,2 !5!A,, [!3!G,!2!C] | !4!D, !3!A, !3!A, !5!A,, | !5!A,, !3!G, !3!G, !4!E, | %27
 !4!^E,2 !4!F,2 | !5!A,,2 !5!A,, [!3!G,!2!C] | !4!D, !3!A, !3!A, !5!B,, | [!6!E,,!3!G,]2 !5!A,,2 | %31
 !5!D,2 !4!D,2 || %32

